X: 8
T: 7. I'LL DANCE A JIG AND I'LL DANCE NO MORE
B: Sam Bayard, "Hill Country Tunes" 1944 #7
S: Played by Mrs Sarah Armstrong, (near) Derry, PA, Nov 18 1943.
R: jig
Z: 2010 John Chambers <jc:trillian.mit.edu>
M: 6/8
L: 1/8
K: Amix
Bcd |\
e2e efe | d2B G2A | B2B BAG | AAA Bcd |
e2e efe | d2B G2A | Bcd A2F | A2z z2c/d/ |
e2e ef^/g | a2f d3 | ef^/g e2c | e3- e2c/d/ |
e2e ef^/g | a2f d3 | ef^/g e2c | e2z z2c/d/ |
e2e efe | d2B G2A | B2B BAG | A2"D.C."z |]

%%sep 2 1 500
%%sep 1 1 500

